X: 10801
Q: "Andante Affetuoso"
M: C
L: 1/16
K: A
(G2B2) (c2e2) ^d4 z2f2 | {a}g4 (f2e2) (g2f2) (e2^d2) | e4 z4 z4 z2e2 |
(e2c2) (e2=g2) {g}f4 z2c2 | (d2f2) (^A2c2) B4 z2c2 | {e}d6 B2 c4 (e2c2) |
(c8 {dc}B4) z2(cd) | e4 e4 e4 z2(fg) | {b}a4 f4 d4 z2f2 |
e4 (f3g/a/) (d2B2) (A2G2) | A8 (e2c2)(f2e2) | (edcd) .d4 (d2B2)(e2d2) |
(dc^Bc) c4 (A2c2e2a2) | {g}f4 (e2d2) {e/}d2c2{d/}c2B2 | A8 "Da Capo"z4 |]



